packages/icons/src/components/Logo/assets/dark/php.svg

<svg width="20" height="20" viewBox="0 0 20 20" fill="none" xmlns="http://www.w3.org/2000/svg">
<path d="M4.54874 7.08948C5.41932 7.09679 6.05016 7.34779 6.44129 7.84207C6.83241 8.33635 6.96146 9.01147 6.82865 9.86742C6.77707 10.2585 6.66264 10.6421 6.48556 11.0184C6.31578 11.3947 6.07982 11.7341 5.77724 12.0367C5.40825 12.4203 5.01358 12.6637 4.59301 12.7671C4.17245 12.8705 3.73706 12.9221 3.28705 12.9221H1.95895L1.53838 15.0249H0L1.58265 7.08948H4.54874ZM17.6696 7.08948C18.5402 7.09679 19.171 7.34779 19.5621 7.84207C19.9532 8.33635 20.0823 9.01147 19.9495 9.86742C19.8979 10.2585 19.7835 10.6421 19.6064 11.0184C19.4366 11.3947 19.2007 11.7341 18.8981 12.0367C18.5291 12.4203 18.1344 12.6637 17.7139 12.7671C17.2933 12.8705 16.8579 12.9221 16.4079 12.9221H15.0798L14.6592 15.0249H13.1208L14.7035 7.08948H17.6696ZM10.1084 4.97559L9.67675 7.08948H11.0491C11.8017 7.10431 12.3624 7.25925 12.7314 7.55431C13.1077 7.84938 13.2184 8.41027 13.0634 9.23657L12.3219 12.9221H10.7724L11.4808 9.40259C11.5545 9.0336 11.5323 8.77174 11.4144 8.61679C11.2964 8.46185 11.0418 8.38438 10.6507 8.38438L9.4222 8.37331L8.51467 12.9221H6.98735L8.58107 4.97559H10.1084ZM3.35345 8.35117C3.26491 8.35848 3.18013 8.36224 3.0989 8.36224L2.87531 8.36223L2.2135 11.6714C2.25777 11.6787 2.30204 11.6825 2.34631 11.6825H2.50126C3.20958 11.6898 3.79991 11.6198 4.27206 11.4722C4.7442 11.3173 5.06161 10.7787 5.22386 9.85635C5.35667 9.08163 5.22386 8.63517 4.82543 8.51719C4.43431 8.3992 3.94379 8.34387 3.35345 8.35117ZM16.4743 8.35117C16.3857 8.35848 16.301 8.36224 16.2197 8.36224L15.9961 8.36223L15.3343 11.6714C15.3786 11.6787 15.4229 11.6825 15.4671 11.6825H15.6221C16.3304 11.6898 16.9207 11.6198 17.3929 11.4722C17.865 11.3173 18.1824 10.7787 18.3447 9.85635C18.4775 9.08163 18.3447 8.63517 17.9463 8.51719C17.5551 8.3992 17.0646 8.34387 16.4743 8.35117Z" fill="white"/>
</svg>

<svg xmlns="http://www.w3.org/2000/svg" width="20" height="20" fill="none" viewBox="0 0 20 20">
    <path fill="#fff" d="M4.549 7.09q1.305.01 1.892.752.586.742.388 2.025a3.9 3.9 0 0 1-.343 1.151q-.255.565-.709 1.019-.553.575-1.184.73a5.5 5.5 0 0 1-1.306.155H1.959l-.42 2.103H0l1.583-7.936zm13.12 0q1.306.01 1.893.752t.387 2.025a3.9 3.9 0 0 1-.343 1.151q-.254.565-.708 1.019-.554.575-1.184.73t-1.306.155H15.08l-.42 2.103h-1.54l1.584-7.936zm-7.56-2.114-.432 2.113h1.372q1.129.022 1.682.465.565.442.332 1.683l-.741 3.685h-1.55l.709-3.52q.11-.552-.067-.785t-.763-.233l-1.229-.01-.907 4.548H6.987l1.594-7.946zM3.352 8.35a3 3 0 0 1-.254.011h-.224l-.662 3.31a1 1 0 0 0 .133.01H2.5q1.063.012 1.771-.21.708-.232.952-1.616.2-1.16-.399-1.339-.585-.177-1.472-.166m13.121 0a3 3 0 0 1-.254.011h-.224l-.662 3.31a1 1 0 0 0 .133.01h.155q1.063.012 1.77-.21.709-.232.953-1.616.2-1.16-.399-1.339-.585-.177-1.472-.166"/>
</svg>
